X: 1433
T: An Ugly Customer
R: reel
M: 4/4
K: Gmajor
G2Bd dGBd|dGBd cAAB|AGBd dGBd|dBAd BGGD|
G2Bd dGBd|dGBd cAAc|B2DG dGBd|dBAd BGGd||
gd (3B^cd edeg|dGBd cAAd|gd (3B^cd edeg|dBAd BGGd|
gd (3B^cd gdeg|dGBd cA~A2|G2 (3B^cd egfa|gedc B2DE||

